X: 762
T: My ain kind Dearie
R: reel
B: Robert Bremner "A Collection of Scots Reels or Country Dances" 1757 p.76 #2
S: http://imslp.org/wiki/A_Collection_of_Scots_Reels_or_Country_Dances_(Bremner,_Robert)
Z: 2013 John Chambers <jc:trillian.mit.edu>
M: C
L: 1/8
K: Amix
% - - - - - - - - - - - - - - - - - - - - - - - - -
V: 1
B |\
AFEF A2-Ac | B/B/B c>A BFFB |\
AFEF A2-Aa | Tf2ec eAA :|
|: a |\
f/f/f af ecac | B/B/B c>A BFFB |\
AFEF ABce | faec eAA :|
% - - - - - - - - - - - - - - - - - - - - - - - - -
V: 2 clef=bass middle=d
z |\
a2a2 a2a2 | b2b2 b2b2 |\
a2a2 a2a2 | d2e2 A2A :|\
|: z |
a2a2 a2a2 | b2b2 b2b2 |\
a2a2 a2a2 | d2e2 A2A :|
% - - - - - - - - - - - - - - - - - - - - - - - - -

%%sep 1 1 500
%%sep 1 1 500
